svgs/solid/sensor-on.svg

<svg xmlns="http://www.w3.org/2000/svg" viewBox="0 0 640 512"><!--! Font Awesome Pro 6.2.0 by @fontawesome - https://fontawesome.com License - https://fontawesome.com/license (Commercial License) Copyright 2022 Fonticons, Inc. --><path d="M0 96C0 60.7 28.7 32 64 32H384c35.3 0 64 28.7 64 64V416c0 35.3-28.7 64-64 64H64c-35.3 0-64-28.7-64-64V96zm88 0c-13.3 0-24 10.7-24 24V264c0 13.3 10.7 24 24 24s24-10.7 24-24V120c0-13.3-10.7-24-24-24zm96 0c-13.3 0-24 10.7-24 24V264c0 13.3 10.7 24 24 24s24-10.7 24-24V120c0-13.3-10.7-24-24-24zm413.3 12l-48 32c-11 7.4-25.9 4.4-33.3-6.7s-4.4-25.9 6.7-33.3l48-32c11-7.4 25.9-4.4 33.3 6.7s4.4 25.9-6.7 33.3zM536 232h80c13.3 0 24 10.7 24 24s-10.7 24-24 24H536c-13.3 0-24-10.7-24-24s10.7-24 24-24zm13.3 140l48 32c11 7.4 14 22.3 6.7 33.3s-22.3 14-33.3 6.7l-48-32c-11-7.4-14-22.3-6.7-33.3s22.3-14 33.3-6.7z"/></svg>

<svg xmlns="http://www.w3.org/2000/svg" viewBox="0 0 640 512"><!--! Font Awesome Pro 6.1.2 by @fontawesome - https://fontawesome.com License - https://fontawesome.com/license (Commercial License) Copyright 2022 Fonticons, Inc. --><path d="M0 96C0 60.65 28.65 32 64 32H384C419.3 32 448 60.65 448 96V416C448 451.3 419.3 480 384 480H64C28.65 480 0 451.3 0 416V96zM64 120V264C64 277.3 74.75 288 88 288C101.3 288 112 277.3 112 264V120C112 106.7 101.3 96 88 96C74.75 96 64 106.7 64 120zM160 120V264C160 277.3 170.7 288 184 288C197.3 288 208 277.3 208 264V120C208 106.7 197.3 96 184 96C170.7 96 160 106.7 160 120zM549.3 139.1C538.3 147.3 523.4 144.3 516 133.3C508.7 122.3 511.7 107.4 522.7 100L570.7 68.03C581.7 60.68 596.6 63.66 603.1 74.69C611.3 85.72 608.3 100.6 597.3 107.1L549.3 139.1zM616 232C629.3 232 640 242.7 640 256C640 269.3 629.3 280 616 280H536C522.7 280 512 269.3 512 256C512 242.7 522.7 232 536 232H616zM597.3 404C608.3 411.4 611.3 426.3 603.1 437.3C596.6 448.3 581.7 451.3 570.7 443.1L522.7 411.1C511.7 404.6 508.7 389.7 516 378.7C523.4 367.7 538.3 364.7 549.3 372L597.3 404z"/></svg>
